public/assets/img/binance.svg

<svg width="24" height="24" viewBox="0 0 24 24" fill="none" xmlns="http://www.w3.org/2000/svg">
<rect x="2" y="2" width="20" height="20" rx="10" fill="#F3BA2F"/>
<path fill-rule="evenodd" clip-rule="evenodd" d="M9.08701 10.8031L12 7.89023L14.9146 10.8047L16.6096 9.10967L12 4.5L7.39201 9.10813L9.08701 10.8031ZM6.19505 10.3048L7.89002 11.9997L6.19497 13.6948L4.5 11.9998L6.19505 10.3048ZM12 16.1098L9.08701 13.1969L7.38953 14.8896L7.3919 14.892L12 19.5L16.6096 14.8904L16.6104 14.8895L14.9145 13.1955L12 16.1098ZM19.5002 12.0005L17.8052 13.6956L16.1102 12.0006L17.8053 10.3056L19.5002 12.0005ZM13.72 11.9991H13.7193L13.7208 11.9999L13.72 12.0009L12 13.7209L10.2816 12.0024L10.2792 11.9999L10.2816 11.9976L10.5829 11.6963L10.7288 11.5502H10.7289L12 10.2791L13.72 11.9991Z" fill="white"/>
</svg>

<svg width="24" height="24" fill="none" xmlns="http://www.w3.org/2000/svg"><rect x="2" y="2" width="20" height="20" rx="10" fill="#F3BA2F"/><path fill-rule="evenodd" clip-rule="evenodd" d="M9.087 10.803 12 7.89l2.915 2.915L16.61 9.11 12 4.5 7.392 9.108l1.695 1.695Zm-2.892-.498L7.89 12l-1.695 1.695L4.5 12l1.695-1.695ZM12 16.11l-2.913-2.913L7.39 14.89l.002.002L12 19.5l4.61-4.61-1.695-1.695L12 16.11ZM19.5 12l-1.695 1.696L16.11 12l1.695-1.695L19.5 12Zm-5.78 0L12 13.72l-1.718-1.718-.003-.002.003-.002.3-.302.147-.146L12 10.28 13.72 12Z" fill="#fff"/></svg>
